!!!OTL: 280. Zwei Saerge.
!!!COM: Ae. Kuntzen (Mel)
!!!ARE: Europa, Mitteleuropa, Deutschland
!!!SCT: B0280
!!!TXL: @@DE
!!!YEM: Copyright 1995, estate of Helmut Schaffrath.
**kern	**text
*ICvox	*
*Ivox	*
*M4/4	*
*met(c)	*
*clefG2	*
*k[f#]	*
*e:	*
!LO:TX:a:t=Langſam.	!
{4B	Ʒwei
=1	=1
4.b	Sär-
8a	-ge
4g	ein-
4f#	-ſam
=2	=2
(4.e	ſte-
8f#)	.
4g}	-hen
{8a	in
8a	des
=3	=3
4b	al-
8aL	-ten
8bJ	.
4.cc	Do-
8a	-mes
=4	=4
2b	Hut,
4r}	.
{8ee	Kö-
8ee	-nig
=5	=5
4.dd	Ott-
8cc	-mar
4a	liegt
8a	in
8a	dem
=6	=6
(<4.b	ei-
8a)	.
4g}	-nen,
{8f#	in
8f#	dem
=7	=7
[4e	an-
8e]	-dern
8f#	der
4g	Sän-
4f#	-ger
=8	=8
2e	ruht.
4r}	.
==	==
!!!AGN: Stimmungs - Lied, Tauer, Toten - Klage
!!!GTL: Trauerlieder (Elegien) und Stimmungslieder
!!!ONB: ESAC (Essen Associative Code) Database: BOEHME
!!!AMT: simple quadruple
!!!AIN: vox
!!!EED: Helmut Schaffrath
!!!EEV: 1.0
!!!RDF**kern: < = below
!!Mel. v. Aemil Kuntʒen 1792: "Habt ihr geſehn eine Lilie"
!!@@COMMENT:"Gedicht von Juſtinus Kerner. Ʒuerſt in A. v. Arnims "Troſteinſamkeit". Ʒeitung für Ein-
!!fiedler. Heidelberg 1808, Sp. 105."
!!@@END:
!!!Text: J. Kerner
!!!URL-scan: https://archive.org/details/BoehmeVtLieder1895/page/n237/mode/2up
!!!ENC: Anna Maria Matuszewska
!!!EEV: 2024/03/07
*-	*-
